!!!id: bhatk3203a
!!!vol: 3
!!!page: 204
!!!antara: Raha takat mohe
!!!raag: bihag
!!!taal: teental
!!!tempo: madhyalaya
**kern
!!data: // >mP  -  P  S'/  S'  S'  S'  S'/  >NS'  >R'S'  N  DP/  P  -  N  -/
==1
f#q
2g
4g
4cc
=
4cc
4cc
4cc
4cc
=
bq
4cc
ddq
4cc
4b
8a
8g
=
2g
2b
!!data: // >NS'  -  >M'G'  M'/  G'  G'  >R'S'  S'/  N  N  P  P/  P  -  N  -/
==2
bq
2cc
ffq
4ee
4ff
=
4ee
4ee
ddq
4cc
4cc
=
4b
4b
4g
4g
=
2g
2b
!!data: // >PG  M  P  N/  S'  N  %P  -/  >mP  P  G  M/  G  -  S  S/
==3
gq
4e
4f
4g
4b
=
4cc
4b
2gS
=
f#q
4g
4g
4e
4f
=
2e
4c
4c
==
*-
